dist/img/about/custom.svg

<svg id="eo1NirmYkj31" xmlns="http://www.w3.org/2000/svg" xmlns:xlink="http://www.w3.org/1999/xlink" viewBox="0 0 68 68" shape-rendering="geometricPrecision" text-rendering="geometricPrecision">
<style><![CDATA[
#eo1NirmYkj32 {animation: eo1NirmYkj32_c_o 1500ms linear infinite normal forwards}@keyframes eo1NirmYkj32_c_o { 0% {opacity: 0} 100% {opacity: 1}}
]]></style>
<path id="eo1NirmYkj32" d="M15.7584,28.6505l-.1088-.2175l1.8532-.9271.1087.2185c.3947.7904,1.1881,1.2803,2.0717,1.2803s1.677-.4909,2.0717-1.2803l.1088-.2185l1.8531.9271-.1088.2185c-.7479,1.4958-2.2519,2.4249-3.9248,2.4249s-3.1779-.9291-3.9248-2.4259ZM0.002209,52.8291v-.9053c0-3.0392.834889-5.9851,2.401081-8.5716L0.412403,39.8687c-.412266-.7189-.518958-1.5569-.300395-2.3597.218563-.8007.736484-1.4688,1.457432-1.88.46509-.2673.99752-.4092,1.5403-.4092c1.11456,0,2.14833.6008,2.6994,1.5693l1.00063,1.7506c1.08038-.7883,2.25503-1.445,3.49393-1.9516-2.29236-1.1352-4.06468-3.151-4.87989-5.5718-2.47981-.3832-4.38576-2.5326-4.38576-5.1191v-.6785c0-.3004.0259-.5997.07769-.8897L2.8891,14.1259C4.31339,5.94171,11.3758,0.00116,19.6832,0.00116s15.3699,5.94055,16.7941,14.12474L38.2517,24.331c.0508.288.0767.5873.0767.8877v.6785c0,2.5865-1.906,4.7359-4.3858,5.1181-.8152,2.4218-2.5875,4.4376-4.8819,5.5728c6.1094,2.5151,10.3035,8.5634,10.3035,15.3357v.9053c0,3.9984-3.2536,7.2509-7.2509,7.2509h-3.1075v4.1434h-18.6452v-4.1434h-3.10749c-3.99836,0-7.250901-3.2525-7.250901-7.2509ZM11.3965,58.0083h5.1792v-3.7145L15.5398,53.258c-.5541-.5532-1.5175-.5542-2.0716,0l-.607.607h-1.4647c-.5718,0-1.0359.4651-1.0359,1.0358v2.0717c0,.5707.4641,1.0358,1.0359,1.0358ZM7.91708,44.6532L6.1893,45.8051l3.42242,5.9882h.74888v-2.8641l-2.44352-4.276ZM14.504,43.5065h-2.0717v7.9408c1.3642-.9675,3.3665-.8587,4.5722.3449l.4133.4144c.345-.2559.7676-.4133,1.2296-.4133h8.2867v-8.2868h-2.0717c0,1.1426-.9291,2.0717-2.0717,2.0717h-6.215c-1.1425,0-2.0717-.9291-2.0717-2.0717Zm8.2867-21.7527c0,1.7133,1.3943,3.1076,3.1076,3.1076s3.1075-1.3943,3.1075-3.1076c0-1.7132-1.3942-3.1075-3.1075-3.1075s-3.1076,1.3943-3.1076,3.1075Zm-.2827-3.8833c-1.7858-.6889-3.3955-1.8127-4.6551-3.324L16.6368,13.088c-.347-.4175-.8577-.6567-1.4005-.6567-.696,0-1.3217.3863-1.6324,1.0089l-.4361.8742-1.56.52c-.7458.2486-1.2472.9447-1.2472,1.7309v1.0721c.8681-.6577,1.9371-1.0628,3.1076-1.0628c2.5005,0,4.5929,1.7827,5.0746,4.1434h2.2809c.2299-1.1322.8452-2.1141,1.6843-2.8475Zm-9.0398.7758c-1.7133,0-3.1076,1.3943-3.1076,3.1075c0,1.7133,1.3943,3.1076,3.1076,3.1076s3.1075-1.3943,3.1075-3.1076c0-1.7132-1.3943-3.1075-3.1075-3.1075Zm-3.1076,7.3721c0,2.5793,1.6439,4.8591,4.0906,5.6744c1.271.4247,2.1245,1.6086,2.1245,2.948v1.4885l.2507,1.0027c.3283,1.3144,1.503,2.2312,2.8568,2.2312s2.5275-.9168,2.8569-2.2302l.2506-1.0027v-1.4885c0-1.3393.8536-2.5243,2.1246-2.948c2.4466-.8152,4.0905-3.0951,4.0905-5.6744v-.1481c-.868.6578-1.937,1.0628-3.1075,1.0628-2.5006,0-4.593-1.7827-5.0746-4.1434h-2.2809c-.4817,2.3607-2.5731,4.1434-5.0746,4.1434-1.1705,0-2.2395-.405-3.1076-1.0628v.1471Zm6.2151,15.4165v2.0716h6.2161l-.0011-2.0716h-6.215ZM26.9341,60.08h-7.2509-3.1075-4.1434v2.0717h14.5018v-2.0717ZM25.8278,37.7441l-1.2399-.2662-.0393.1575c-.1782.7126-.5148,1.3455-.9489,1.8925.7417.3159,1.2627,1.0513,1.2627,1.907h4.1434v10.3584h3.7477l1.3217,2.6445-1.8531.9271-.7489-1.4999h-12.8258v4.1433h1.0358h12.4301c2.8558,0,5.1792-2.3234,5.1792-5.1792v-.9053c0-6.792-4.8218-12.7554-11.4647-14.1797ZM11.586,34.9142l1.7558.7531l1.1612-.2486v-.7769c0-.4464-.2839-.8421-.7085-.983-3.294-1.098-5.50659-4.1672-5.50659-7.6394v-9.4551c0-1.6791,1.07003-3.1645,2.66319-3.6959l.7447-.2476.0539-.1067c.665-1.329,2.0002-2.1545,3.4856-2.1545c1.1591,0,2.2509.5107,2.9936,1.4025l1.2161,1.4585c1.1622,1.3953,2.6859,2.3917,4.3754,2.92-.231-.4381-.4061-.9126-.491-1.4253-.2269-1.359-1.3176-2.284-2.6103-2.284v-2.0717c2.3089,0,4.2604,1.6532,4.6395,3.931.2268,1.359,1.3186,2.284,2.6114,2.284h2.0716h1.0359v9.4438c0,3.4722-2.2136,6.5424-5.5066,7.6393-.4236.1409-.7085.5366-.7085.9831v.7768l1.1612.2486l1.7547-.753c2.1639-.9271,3.7954-2.8424,4.3661-5.1254l.1947-.7831h.809c1.7133,0,3.1076-1.3942,3.1076-3.1075v-.6785c0-.1771-.0156-.3542-.0456-.5303L34.4347,14.4812C33.1854,7.29142,26.9807,2.07284,19.6832,2.07284s-13.50219,5.21858-14.75349,12.40836L3.15531,24.6863c-.03107.1782-.04661.3553-.04661.5324v.6785c0,1.7133,1.39424,3.1075,3.10753,3.1075h.80899l.19474.7842c.57178,2.283,2.20324,4.1993,4.36604,5.1253ZM7.85597,40.37l2.50463,4.3827v-3.3178h4.1434c0-.8557.521-1.5911,1.2627-1.907-.434-.547-.7707-1.1799-.9488-1.8925l-.0394-.1575-1.2409.2662c-2.0655.4424-4.00253,1.3591-5.68163,2.6259ZM2.20959,38.8401l2.95008,5.1626l1.72778-1.1519-2.87757-5.0362c-.27346-.4796-.93847-.6598-1.41185-.3874-.24239.1388-.41434.3605-.48788.6277-.07251.2672-.03729.5459.09944.7852Zm-.1357,13.989c0,2.8558,2.3234,5.1792,5.17922,5.1792h1.22643c-.11601-.3252-.19059-.6712-.19059-1.0358v-2.0717c0-.3646.07458-.7106.19059-1.0358h-1.62213l-.74995,1.4988-1.85312-.9271l1.32277-2.6434h1.64906L3.60487,45.456c-1.00062,2.0023-1.53098,4.2055-1.53098,6.4678v.9053ZM60.6052,23.3977l-4.8519,3.9052c-.5334.4288-1.2036.666-1.8873.666-.6836,0-1.3549-.2362-1.8873-.666l-4.8519-3.9062c-2.3006-1.8511-3.6192-4.6116-3.6192-7.5741c0-.8618.1139-1.7195.3398-2.5513l2.2943-8.46487.7572-.03107c2.2737-.09426,4.4718-.62358,6.5341-1.57241l.433-.19888.433.19888c2.0613.94883,4.2594,1.47711,6.5341,1.57241l.7572.03107l2.2944,8.46387c.2258.8328.3397,1.6905.3397,2.5513c0,2.9646-1.3196,5.7251-3.6192,7.5761Zm1.5476-7.5751c0-.6785-.0902-1.3549-.2673-2.0095L59.9837,6.79939c-1.7464-.13984-3.4452-.52517-5.0818-1.12285v11.93396h-2.0717v-11.93396c-1.6367.59768-3.3365.98198-5.0819,1.12285L45.8465,13.8141c-.1771.6547-.2672,1.3311-.2672,2.0085c0,2.3317,1.0379,4.5049,2.8465,5.9603l4.4044,3.5456v-5.6463h2.0717v5.6463l4.4044-3.5446c1.8085-1.4554,2.8465-3.6286,2.8465-5.9613ZM59.3487,29.3072l-9.626,9.6271-1.3394-1.3393-1.4647,1.4647l2.8041,2.804L60.8134,30.7719l-1.4647-1.4647Zm0,7.2509l-9.626,9.6271-1.3394-1.3393-1.4647,1.4647l2.8041,2.804L60.8134,38.0228l-1.4647-1.4647ZM48.3833,52.0968l-1.4647,1.4647l2.8041,2.804L60.8134,45.2737L59.3487,43.809l-9.626,9.6271-1.3394-1.3393Z" opacity="0" fill="#685ed6"/></svg>

<svg width="68" height="68" viewBox="0 0 68 68" fill="none" xmlns="http://www.w3.org/2000/svg">
<path d="M15.7584 28.6505L15.6496 28.433L17.5028 27.5059L17.6115 27.7244C18.0062 28.5148 18.7996 29.0047 19.6832 29.0047C20.5668 29.0047 21.3602 28.5138 21.7549 27.7244L21.8637 27.5059L23.7168 28.433L23.608 28.6515C22.8601 30.1473 21.3561 31.0764 19.6832 31.0764C18.0103 31.0764 16.5053 30.1473 15.7584 28.6505ZM0.00220888 52.8291V51.9238C0.00220888 48.8846 0.837098 45.9387 2.40329 43.3522L0.412403 39.8687C0.000137202 39.1498 -0.106555 38.3118 0.112008 37.509C0.330571 36.7083 0.848492 36.0402 1.56944 35.629C2.03453 35.3617 2.56696 35.2198 3.10974 35.2198C4.2243 35.2198 5.25807 35.8206 5.80914 36.7891L6.80977 38.5397C7.89015 37.7514 9.0648 37.0947 10.3037 36.5881C8.01134 35.4529 6.23902 33.4371 5.42381 31.0163C2.944 30.6331 1.03805 28.4837 1.03805 25.8972V25.2187C1.03805 24.9183 1.06395 24.619 1.11574 24.329L2.8891 14.1259C4.31339 5.94171 11.3758 0.00115967 19.6832 0.00115967C27.9907 0.00115967 35.0531 5.94171 36.4773 14.1259L38.2517 24.331C38.3025 24.619 38.3284 24.9183 38.3284 25.2187V25.8972C38.3284 28.4837 36.4224 30.6331 33.9426 31.0153C33.1274 33.4371 31.3551 35.4529 29.0607 36.5881C35.1701 39.1032 39.3642 45.1515 39.3642 51.9238V52.8291C39.3642 56.8275 36.1106 60.08 32.1133 60.08H29.0058V64.2234H10.3606V60.08H7.25311C3.25475 60.08 0.00220888 56.8275 0.00220888 52.8291ZM11.3965 58.0083H16.5757V54.2938L15.5398 53.258C14.9857 52.7048 14.0223 52.7038 13.4682 53.258L12.8612 53.865H11.3965C10.8247 53.865 10.3606 54.3301 10.3606 54.9008V56.9725C10.3606 57.5432 10.8247 58.0083 11.3965 58.0083ZM7.91708 44.6532L6.1893 45.8051L9.61172 51.7933H10.3606V48.9292L7.91708 44.6532ZM14.504 43.5065H12.4323V51.4473C13.7965 50.4798 15.7988 50.5886 17.0045 51.7922L17.4178 52.2066C17.7628 51.9507 18.1854 51.7933 18.6474 51.7933H26.9341V43.5065H24.8624C24.8624 44.6491 23.9333 45.5782 22.7907 45.5782H16.5757C15.4332 45.5782 14.504 44.6491 14.504 43.5065ZM22.7907 21.7538C22.7907 23.4671 24.185 24.8614 25.8983 24.8614C27.6116 24.8614 29.0058 23.4671 29.0058 21.7538C29.0058 20.0406 27.6116 18.6463 25.8983 18.6463C24.185 18.6463 22.7907 20.0406 22.7907 21.7538ZM22.508 17.8705C20.7222 17.1816 19.1125 16.0578 17.8529 14.5465L16.6368 13.088C16.2898 12.6705 15.7791 12.4313 15.2363 12.4313C14.5403 12.4313 13.9146 12.8176 13.6039 13.4402L13.1678 14.3144L11.6078 14.8344C10.862 15.083 10.3606 15.7791 10.3606 16.5653V17.6374C11.2287 16.9797 12.2977 16.5746 13.4682 16.5746C15.9687 16.5746 18.0611 18.3573 18.5428 20.718H20.8237C21.0536 19.5858 21.6689 18.6039 22.508 17.8705ZM13.4682 18.6463C11.7549 18.6463 10.3606 20.0406 10.3606 21.7538C10.3606 23.4671 11.7549 24.8614 13.4682 24.8614C15.1814 24.8614 16.5757 23.4671 16.5757 21.7538C16.5757 20.0406 15.1814 18.6463 13.4682 18.6463ZM10.3606 26.0184C10.3606 28.5977 12.0045 30.8775 14.4512 31.6928C15.7222 32.1175 16.5757 33.3014 16.5757 34.6408V36.1293L16.8264 37.132C17.1547 38.4464 18.3294 39.3632 19.6832 39.3632C21.0371 39.3632 22.2107 38.4464 22.5401 37.133L22.7907 36.1303V34.6418C22.7907 33.3025 23.6443 32.1175 24.9153 31.6938C27.3619 30.8786 29.0058 28.5987 29.0058 26.0194V25.8713C28.1378 26.5291 27.0688 26.9341 25.8983 26.9341C23.3977 26.9341 21.3053 25.1514 20.8237 22.7907H18.5428C18.0611 25.1514 15.9697 26.9341 13.4682 26.9341C12.2977 26.9341 11.2287 26.5291 10.3606 25.8713V26.0184ZM16.5757 41.4349V43.5065H22.7918L22.7907 41.4349H16.5757ZM26.9341 60.08H19.6832H16.5757H12.4323V62.1517H26.9341V60.08ZM25.8278 37.7441L24.5879 37.4779L24.5486 37.6354C24.3704 38.348 24.0338 38.9809 23.5997 39.5279C24.3414 39.8438 24.8624 40.5792 24.8624 41.4349H29.0058V51.7933H32.7535L34.0752 54.4378L32.2221 55.3649L31.4732 53.865H18.6474V58.0083H19.6832H32.1133C34.9691 58.0083 37.2925 55.6849 37.2925 52.8291V51.9238C37.2925 45.1318 32.4707 39.1684 25.8278 37.7441ZM11.586 34.9142L13.3418 35.6673L14.503 35.4187V34.6418C14.503 34.1954 14.2191 33.7997 13.7945 33.6588C10.5005 32.5608 8.28791 29.4916 8.28791 26.0194V16.5643C8.28791 14.8852 9.35794 13.3998 10.9511 12.8684L11.6958 12.6208L11.7497 12.5141C12.4147 11.1851 13.7499 10.3596 15.2353 10.3596C16.3944 10.3596 17.4862 10.8703 18.2289 11.7621L19.445 13.2206C20.6072 14.6159 22.1309 15.6123 23.8204 16.1406C23.5894 15.7025 23.4143 15.228 23.3294 14.7153C23.1025 13.3563 22.0118 12.4313 20.7191 12.4313V10.3596C23.028 10.3596 24.9795 12.0128 25.3586 14.2906C25.5854 15.6496 26.6772 16.5746 27.97 16.5746H30.0416H31.0775V26.0184C31.0775 29.4906 28.8639 32.5608 25.5709 33.6577C25.1473 33.7986 24.8624 34.1943 24.8624 34.6408V35.4176L26.0236 35.6662L27.7783 34.9132C29.9422 33.9861 31.5737 32.0708 32.1444 29.7878L32.3391 29.0047H33.1481C34.8614 29.0047 36.2557 27.6105 36.2557 25.8972V25.2187C36.2557 25.0416 36.2401 24.8645 36.2101 24.6884L34.4347 14.4812C33.1854 7.29142 26.9807 2.07284 19.6832 2.07284C12.3857 2.07284 6.18101 7.29142 4.92971 14.4812L3.15531 24.6863C3.12424 24.8645 3.1087 25.0416 3.1087 25.2187V25.8972C3.1087 27.6105 4.50294 29.0047 6.21623 29.0047H7.02522L7.21996 29.7889C7.79174 32.0719 9.4232 33.9882 11.586 34.9142ZM7.85597 40.37L10.3606 44.7527V41.4349H14.504C14.504 40.5792 15.025 39.8438 15.7667 39.5279C15.3327 38.9809 14.996 38.348 14.8179 37.6354L14.7785 37.4779L13.5376 37.7441C11.4721 38.1865 9.53507 39.1032 7.85597 40.37ZM2.20959 38.8401L5.15967 44.0027L6.88745 42.8508L4.00988 37.8146C3.73642 37.335 3.07141 37.1548 2.59803 37.4272C2.35564 37.566 2.18369 37.7877 2.11015 38.0549C2.03764 38.3221 2.07286 38.6008 2.20959 38.8401ZM2.07389 52.8291C2.07389 55.6849 4.39729 58.0083 7.25311 58.0083H8.47954C8.36353 57.6831 8.28895 57.3371 8.28895 56.9725V54.9008C8.28895 54.5362 8.36353 54.1902 8.47954 53.865H6.85741L6.10746 55.3638L4.25434 54.4367L5.57711 51.7933H7.22617L3.60487 45.456C2.60425 47.4583 2.07389 49.6615 2.07389 51.9238V52.8291ZM60.6052 23.3977L55.7533 27.3029C55.2199 27.7317 54.5497 27.9689 53.866 27.9689C53.1824 27.9689 52.5111 27.7327 51.9787 27.3029L47.1268 23.3967C44.8262 21.5456 43.5076 18.7851 43.5076 15.8226C43.5076 14.9608 43.6215 14.1031 43.8474 13.2713L46.1417 4.80643L46.8989 4.77536C49.1726 4.6811 51.3707 4.15178 53.433 3.20295L53.866 3.00407L54.299 3.20295C56.3603 4.15178 58.5584 4.68006 60.8331 4.77536L61.5903 4.80643L63.8847 13.2703C64.1105 14.1031 64.2244 14.9608 64.2244 15.8216C64.2244 18.7862 62.9048 21.5467 60.6052 23.3977ZM62.1528 15.8226C62.1528 15.1441 62.0626 14.4677 61.8855 13.8131L59.9837 6.79939C58.2373 6.65955 56.5385 6.27422 54.9019 5.67654V17.6105H52.8302V5.67654C51.1935 6.27422 49.4937 6.65852 47.7483 6.79939L45.8465 13.8141C45.6694 14.4688 45.5793 15.1452 45.5793 15.8226C45.5793 18.1543 46.6172 20.3275 48.4258 21.7829L52.8302 25.3285V19.6822H54.9019V25.3285L59.3063 21.7839C61.1148 20.3285 62.1528 18.1553 62.1528 15.8226ZM59.3487 29.3072L49.7227 38.9343L48.3833 37.595L46.9186 39.0597L49.7227 41.8637L60.8134 30.7719L59.3487 29.3072ZM59.3487 36.5581L49.7227 46.1852L48.3833 44.8459L46.9186 46.3106L49.7227 49.1146L60.8134 38.0228L59.3487 36.5581ZM48.3833 52.0968L46.9186 53.5615L49.7227 56.3655L60.8134 45.2737L59.3487 43.809L49.7227 53.4361L48.3833 52.0968Z" fill="#685ED6"/>
</svg>
